!!!SOCIAL_FUNCTION:	love songs
!!!PDT:	1909
!!!OTL: No_135_My_Love_Has_Departed.krn
!!!REG: Great_Lakes
!!!LANG: Non-Tone
!!!LING_GROUP: Algonquin
**kern
*staff1
=1-
*clefG2
*k[]
*M2/4
8.a/L
16a/Jk
4b\
=2||
*M3/4
2.a/
=3||
*M2/4
(4a/
8.g/L)
16e/Jk
=4||
*M3/4
4a/
(2a/
=5||
*M2/4
8.e/L)
16e/Jk
4f#/
=6
2e/
=7
(4e/
8.d/L)
16d/Jk
=8||
*M3/4
4e/
2d/
=9||
*M2/4
4e/
4a/
=10||
*M3/4
4a/
2g/
=11||
*M2/4
(4g/
8.e/L)
16d/Jk
=12||
*M3/4
4e/
2d/
=13
8A/L
8d/J
4d/
4c/
=14||
*M2/4
4.c/
8A/
=15||
*M3/4
4c/
2A/
=16
2a/
4b\
=17
2.a/
=18||
*M2/4
(4a/
8.g/L)
16e/Jk
=19||
*M3/4
4a/
2a/
=20||
*M2/4
8.e/L
16e/Jk
4f#/
=21
2e/
=22
(4e/
8.d/L)
16d/Jk
=23
=
*M3/4
4e/
2d/
=24||
*M2/4
4r
4e/
=25||
*M3/4
4.a/
8a/
4g/
=26
4.e/
8f#/
4e/
=27
4.d/
8e/
4d/
=28||
*M2/4
2c/
=29||
*M3/4
2.A/
=30||
*M2/4
8.a/L
16a/Jk
4b\
=31||
*M3/4
2.a/
=32||
*M2/4
(4a/
8.g/L)
16e/Jk
=33||
*M3/4
4a/
(2a/
=34||
*M2/4
8.e/L)
16e/Jk
4f#/
=35
2e/
=36
(4e/
8.d/L)
16d/Jk
=37||
*M3/4
4e/
2d/
=38||
*M2/4
4e/
4a/
=39||
*M3/4
4a/
4.g/
8g/
=40||
*M2/4
8.e/L
16f#/Jk
4e/
=41
2d/
=42||
*M3/4
8A/L
8d/J
4d/
4c/
=43||
*M2/4
(4c/
8A/L)
8A/J
=44||
*M3/4
4c/
2A/
==
*-
